Newaita-dark/actions/22/document-revert.svg

<?xml version="1.0" encoding="UTF-8"?>
<svg xmlns="http://www.w3.org/2000/svg" xmlns:xlink="http://www.w3.org/1999/xlink" width="22pt" height="22pt" viewBox="0 0 22 22" version="1.1">
<g id="surface1">
<path style=" stroke:none;fill-rule:nonzero;fill:rgb(74.117649%,74.117649%,74.117649%);fill-opacity:1;" d="M 10.914062 1.082031 L 4.546875 1.082031 C 3.539062 1.082031 2.730469 1.894531 2.730469 2.902344 L 2.730469 19.273438 C 2.730469 20.28125 3.539062 21.09375 4.546875 21.09375 L 17.28125 21.09375 C 18.289062 21.09375 19.101562 20.28125 19.101562 19.273438 L 19.101562 8.359375 C 19.101562 8.175781 19.03125 8.003906 18.902344 7.875 L 12.308594 1.28125 C 12.179688 1.152344 12.003906 1.082031 11.824219 1.082031 Z M 5.003906 2.445312 L 10.90625 2.445312 L 10.90625 7.359375 C 10.90625 8.367188 11.71875 9.179688 12.726562 9.179688 L 17.738281 9.179688 L 17.738281 9.269531 C 17.738281 9.269531 17.738281 9.273438 17.738281 9.277344 L 17.738281 18.820312 C 17.738281 19.324219 17.332031 19.726562 16.828125 19.726562 L 5.003906 19.726562 C 4.5 19.726562 4.09375 19.324219 4.09375 18.820312 L 4.09375 3.355469 C 4.09375 2.851562 4.5 2.445312 5.003906 2.445312 Z M 12.269531 3.175781 L 16.914062 7.816406 L 13.179688 7.816406 C 12.675781 7.816406 12.269531 7.410156 12.269531 6.90625 Z M 12.269531 3.175781 "/>
<path style=" stroke:none;fill-rule:nonzero;fill:rgb(100%,43.921569%,26.274511%);fill-opacity:1;" d="M 5.496094 17.617188 C 5.488281 17.792969 5.550781 17.964844 5.671875 18.089844 C 5.792969 18.21875 5.960938 18.289062 6.136719 18.289062 L 11.597656 18.289062 C 11.828125 18.289062 12.042969 18.164062 12.15625 17.960938 C 12.269531 17.757812 12.269531 17.511719 12.148438 17.3125 L 9.417969 12.765625 C 9.304688 12.570312 9.09375 12.453125 8.867188 12.453125 C 8.640625 12.453125 8.429688 12.570312 8.3125 12.765625 L 5.585938 17.3125 C 5.53125 17.40625 5.5 17.511719 5.496094 17.617188 Z M 7.277344 17 L 8.867188 14.347656 L 10.457031 17 Z M 7.277344 17 "/>
</g>
</svg>

<svg xmlns="http://www.w3.org/2000/svg" width="22pt" height="22pt" viewBox="0 0 22 22"><path d="M10.914 1.082H4.547a1.814 1.814 0 0 0-1.817 1.82v16.371c0 1.008.81 1.82 1.817 1.82H17.28c1.008 0 1.82-.812 1.82-1.82V8.36a.68.68 0 0 0-.199-.484L12.31 1.281a.686.686 0 0 0-.485-.199zm-5.91 1.363h5.902V7.36c0 1.008.813 1.82 1.82 1.82h5.012v9.641a.905.905 0 0 1-.91.907H5.004a.905.905 0 0 1-.91-.907V3.355c0-.503.406-.91.91-.91zm7.266.73l4.644 4.641H13.18a.909.909 0 0 1-.91-.91zm0 0" fill="#bdbdbd"/><path d="M5.496 17.617a.638.638 0 0 0 .64.672h5.462a.64.64 0 0 0 .558-.328.642.642 0 0 0-.008-.648l-2.73-4.547a.646.646 0 0 0-1.105 0l-2.727 4.546a.656.656 0 0 0-.09.305zM7.277 17l1.59-2.652L10.457 17zm0 0" fill="#ff7043"/></svg>
